src/icons/outline/ai/virtual-agent.svg

<svg width="24" height="24" viewBox="0 0 24 24" fill="none" xmlns="http://www.w3.org/2000/svg">
<g clip-path="url(#clip0_6352_1418)">
<path d="M19.1484 13.1182C19.2684 13.1182 19.3883 13.1689 19.4883 13.2393C19.5081 13.2493 19.5184 13.2683 19.5381 13.2686C19.6381 13.359 19.719 13.4798 19.749 13.6104C20.0292 15.058 21.1494 16.1941 22.54 16.4756C22.6699 16.5057 22.7899 16.5762 22.8799 16.6865L22.8701 16.6768C22.9601 16.7872 22.9999 16.928 23 17.0586C23 17.2094 22.9602 17.3406 22.8701 17.4512C22.7802 17.5616 22.6602 17.6319 22.5303 17.6621C21.1396 17.9436 20.0184 19.08 19.7383 20.5176C19.7082 20.6582 19.6283 20.7787 19.5283 20.8691C19.4184 20.9595 19.2786 20.9999 19.1387 21C18.9986 21 18.8679 20.9596 18.7578 20.8691C18.6479 20.7787 18.5779 20.6581 18.5479 20.5176C18.4178 19.8542 18.1078 19.2608 17.6777 18.7783C17.2976 18.346 16.8169 18.0136 16.2666 17.8125C16.1067 17.7523 15.9367 17.7023 15.7568 17.6621C15.6269 17.632 15.507 17.5616 15.417 17.4512C15.327 17.3406 15.2861 17.1993 15.2861 17.0586C15.2862 16.918 15.327 16.7872 15.417 16.6768C15.507 16.5664 15.6269 16.496 15.7568 16.4658C16.7072 16.2748 17.5276 15.6912 18.0479 14.877C18.2878 14.495 18.4676 14.0629 18.5576 13.6006C18.5876 13.4699 18.6585 13.3493 18.7686 13.2588C18.8786 13.1685 19.0185 13.1182 19.1484 13.1182Z" fill="#3C3B44"/>
<path d="M10.2344 4C10.6344 4.0001 10.954 4.32166 10.9541 4.72363V7.96094H14.9365C16.5073 7.961 19.4785 8.7251 19.4785 11.5801V11.6299C19.3586 11.5897 19.2585 11.5898 19.1387 11.5898C18.7487 11.5898 18.3681 11.6904 18.0381 11.9014V11.5703C18.0381 9.44007 15.0692 9.39848 14.9365 9.39844H5.54199C2.57071 9.39847 2.44043 11.3589 2.44043 11.5801V15.8125C2.4405 17.9433 5.41091 17.9844 5.54199 17.9844H13.9658C14.0358 18.1451 14.1264 18.3059 14.2363 18.4365H14.2256C14.5357 18.8185 14.9768 19.0801 15.457 19.1807C15.6369 19.2209 15.7973 19.2712 15.9473 19.3516C15.6372 19.3918 15.3066 19.4219 14.9365 19.4219H5.54199C3.97127 19.4219 1.00005 18.6675 1 15.8125V11.5703C1 11.5402 1.05019 7.95117 5.53223 7.95117H9.51367V4.72363C9.51377 4.3216 9.83426 4 10.2344 4Z" fill="#3C3B44"/>
<path d="M7.12207 12.2236C7.62195 12.2236 8.02226 12.6355 8.02246 13.1279V14.2646C8.02228 14.7671 7.62195 15.1689 7.12207 15.1689C6.62232 15.1688 6.22285 14.757 6.22266 14.2646V13.1279C6.22285 12.6255 6.62232 12.2238 7.12207 12.2236Z" fill="#3C3B44"/>
<path d="M13.3652 12.2236C13.8651 12.2237 14.2654 12.6355 14.2656 13.1279V14.2646C14.2654 14.7671 13.8651 15.1689 13.3652 15.1689C12.8654 15.1689 12.465 14.7571 12.4648 14.2646V13.1279C12.465 12.6254 12.8654 12.2236 13.3652 12.2236Z" fill="#3C3B44"/>
</g>
<defs>
<clipPath id="clip0_6352_1418">
<rect width="24" height="24" fill="white"/>
</clipPath>
</defs>
</svg>

<svg xmlns="http://www.w3.org/2000/svg" width="24" height="24" fill="none" viewBox="0 0 24 24"><g fill="currentColor" clip-path="url(#a)"><path d="M19.148 13.118c.12 0 .24.05.34.121.02.01.03.03.05.03.1.09.181.21.211.341.28 1.448 1.4 2.584 2.791 2.866.13.03.25.1.34.21l-.01-.01c.09.111.13.252.13.383a.6.6 0 0 1-.47.603c-1.39.282-2.512 1.418-2.792 2.856a.67.67 0 0 1-.21.351.6.6 0 0 1-.39.131c-.14 0-.27-.04-.38-.13a.6.6 0 0 1-.21-.352 3.7 3.7 0 0 0-.87-1.74 3.45 3.45 0 0 0-1.411-.965q-.24-.09-.51-.15a.6.6 0 0 1-.34-.212.62.62 0 0 1-.13-.392c0-.141.04-.272.13-.382s.21-.181.34-.211a3.56 3.56 0 0 0 2.29-1.589c.24-.382.42-.814.51-1.276a.62.62 0 0 1 .591-.483"/><path d="M10.234 4c.4 0 .72.322.72.724V7.96h3.983c1.57 0 4.542.764 4.542 3.62v.049c-.12-.04-.22-.04-.34-.04-.39 0-.77.1-1.1.311v-.33c0-2.13-2.97-2.173-3.103-2.173H5.543c-2.971 0-3.102 1.96-3.102 2.182v4.233c0 2.13 2.97 2.171 3.102 2.171h8.424c.07.161.16.322.27.452h-.01c.31.383.75.644 1.231.745.18.04.34.09.49.17-.31.04-.64.07-1.01.07H5.542C3.972 19.42 1 18.667 1 15.812V11.57c0-.03.05-3.619 4.532-3.619h3.982V4.724a.72.72 0 0 1 .72-.724"/><path d="M7.122 12.224c.5 0 .9.412.9.904v1.137a.899.899 0 1 1-1.8 0v-1.137c0-.502.4-.904.9-.904m6.243 0c.5 0 .9.412.9.904v1.137c0 .502-.4.904-.9.904s-.9-.412-.9-.904v-1.137c0-.503.4-.904.9-.904"/></g><defs><clipPath id="a"><path fill="currentColor" d="M0 0h24v24H0z"/></clipPath></defs></svg>
